assets/icons/qvision/local_pizza.svg

<svg width="24" height="24" viewBox="0 0 24 24" fill="none" xmlns="http://www.w3.org/2000/svg">
<g clip-path="url(#clip0_147_5439)">
<path d="M12 2C8.43001 2 5.23001 3.54 3.01001 6L12 22L20.99 6C18.78 3.55 15.57 2 12 2ZM7.00001 7C7.00001 5.9 7.90001 5 9.00001 5C10.1 5 11 5.9 11 7C11 8.1 10.1 9 9.00001 9C7.90001 9 7.00001 8.1 7.00001 7ZM12 15C10.9 15 10 14.1 10 13C10 11.9 10.9 11 12 11C13.1 11 14 11.9 14 13C14 14.1 13.1 15 12 15Z" fill="#323232"/>
</g>
<defs>
<clipPath id="clip0_147_5439">
<rect width="24" height="24" fill="white"/>
</clipPath>
</defs>
</svg>

<svg xmlns="http://www.w3.org/2000/svg" height="24" viewBox="0 0 24 24" width="24"><path d="M0 0h24v24H0z" fill="none"/><path d="M12 2C8.43 2 5.23 3.54 3.01 6L12 22l8.99-16C18.78 3.55 15.57 2 12 2zM7 7c0-1.1.9-2 2-2s2 .9 2 2-.9 2-2 2-2-.9-2-2zm5 8c-1.1 0-2-.9-2-2s.9-2 2-2 2 .9 2 2-.9 2-2 2z"/></svg>
